X: 1
T: Mulhare's
M: 4/4
L: 1/8
R: reel
K: Dmaj
|:AG|F2AF DFAF|G2BG dGBG|c2ec ABcA|dcde fdAG|
F2AF DFAF|GB B2dB B2|Acef gecd|eddc d2:|
|:fg|a2fd adfd|adfd edBd|e2ef gfga|be e2befg|
a2fd adfd|adfd edBA|FA A2GBdB|AFGE D2:|
